X:109
T:Squash Juice Jig
M:6/8
L:1/8
C:© Paul Gitlitz 1999
R:Jig
B:Giblitz Fancy
N:Written after my friends took me to a "Pied Pumkin" concert for a belated birthday gift.
K:G
A|("G"Bcd) (Bcd)|(Bcd)g2d|(Bcd)g2d|Bdc "D"A2A|!
("G"Bcd) (Bcd)|(Bcd)g2d|Bdc "D"AGF|"G"G3 G2:|!
D|"G"GFG "D"ABA|"G"G3G2D|GFG "A7"ABA|"D7"d3d2A|!
"Bm"BAB "D"dBd|"Em"BAB "G"~G3|BdB "D"ABA|"G"G3G2D|!
"G"GFG "D"ABA|"G"G3G2D|GFG "A7"ABA|"D7"d3d2e|!
"D"fdB "Bm"dBA|"G"BAG "Em"AGE|"A7"DEG "D"ABA|"G"G3G2|]
